app/assets/images/heroicons/micro/truck.svg

<svg width="16" height="16" viewBox="0 0 16 16" fill="none" xmlns="http://www.w3.org/2000/svg">
<path d="M2.90849 2.06726C2.39314 2.10051 2 2.53369 2 3.05011V8H8V3.05011C8 2.53369 7.60685 2.10051 7.09151 2.06726C6.40009 2.02265 5.70269 2 5 2C4.29731 2 3.59991 2.02265 2.90849 2.06726Z" fill="black"/>
<path d="M12.9189 4.72164C12.8043 4.29252 12.4118 4 11.9676 4H10C9.44772 4 9 4.44772 9 5V11.2676C9.29417 11.0974 9.63571 11 10 11C11.1046 11 12 11.8954 12 13H13C13.5523 13 14.0016 12.5521 13.9847 12.0001C13.9076 9.49048 13.5417 7.05362 12.9189 4.72164Z" fill="black"/>
<path d="M11 13C11 13.5523 10.5523 14 10 14C9.44771 14 9 13.5523 9 13C9 12.4477 9.44771 12 10 12C10.5523 12 11 12.4477 11 13Z" fill="black"/>
<path d="M2 12V9H8V12C8 12.5523 7.55228 13 7 13C7 11.8954 6.10457 11 5 11C3.89543 11 3 11.8954 3 13C2.44772 13 2 12.5523 2 12Z" fill="black"/>
<path d="M6 13C6 13.5523 5.55228 14 5 14C4.44772 14 4 13.5523 4 13C4 12.4477 4.44772 12 5 12C5.55228 12 6 12.4477 6 13Z" fill="black"/>
</svg>

<svg xmlns="http://www.w3.org/2000/svg" viewBox="0 0 16 16" fill="currentColor" aria-hidden="true" data-slot="icon">
  <path d="M2.908 2.067A.978.978 0 0 0 2 3.05V8h6V3.05a.978.978 0 0 0-.908-.983 32.481 32.481 0 0 0-4.184 0ZM12.919 4.722A.98.98 0 0 0 11.968 4H10a1 1 0 0 0-1 1v6.268A2 2 0 0 1 12 13h1a.977.977 0 0 0 .985-1 31.99 31.99 0 0 0-1.066-7.278Z"/>
  <path d="M11 13a1 1 0 1 1-2 0 1 1 0 0 1 2 0ZM2 12V9h6v3a1 1 0 0 1-1 1 2 2 0 1 0-4 0 1 1 0 0 1-1-1Z"/>
  <path d="M6 13a1 1 0 1 1-2 0 1 1 0 0 1 2 0Z"/>
</svg>
